assets/img/braze_icons/settings-04.svg

<svg fill="none" height="24" viewBox="0 0 24 24" width="24" xmlns="http://www.w3.org/2000/svg"><g fill="#801ed7"><path d="m14.126 9h-11.126c-.55228 0-1-.44772-1-1s.44772-1 1-1h11.126c.4441-1.72523 2.0102-3 3.874-3 2.2091 0 4 1.79086 4 4 0 2.2091-1.7909 4-4 4-1.8638 0-3.4299-1.2748-3.874-3z"/><path d="m6 12c-2.20914 0-4 1.7909-4 4s1.79086 4 4 4c1.86384 0 3.42994-1.2748 3.87398-3h11.12602c.5523 0 1-.4477 1-1s-.4477-1-1-1h-11.12602c-.44404-1.7252-2.01014-3-3.87398-3z"/></g></svg>

<svg width="24" height="24" viewBox="0 0 24 24" fill="none" xmlns="http://www.w3.org/2000/svg">
<path d="M14.126 9L3 9C2.44772 9 2 8.55228 2 8C2 7.44772 2.44772 7 3 7L14.126 7C14.5701 5.27477 16.1362 4 18 4C20.2091 4 22 5.79086 22 8C22 10.2091 20.2091 12 18 12C16.1362 12 14.5701 10.7252 14.126 9Z" fill="#801ED7"/>
<path d="M6 12C3.79086 12 2 13.7909 2 16C2 18.2091 3.79086 20 6 20C7.86384 20 9.42994 18.7252 9.87398 17L21 17C21.5523 17 22 16.5523 22 16C22 15.4477 21.5523 15 21 15L9.87398 15C9.42994 13.2748 7.86384 12 6 12Z" fill="#801ED7"/>
</svg>
